X:1
T:Banks of Allan Water
M:3/4
L:1/8
K:G
 B, D/2| G3 BA F| G2 D2 D3/2 D/2| E3 FGB/2-A/2| G2- F2 D3/2 G/2| B3 GA F|\
 G2 D2 z2| E3/2 E/2 A2 F2| G4 F3/2 G/2| A3 AF D| G2 A2 B3/2 B/2| c3 AB G|\
 B2- A2 d3/2 c/2| B3 cA B| G2 D2 z2| E3 EA F| G4||
